X: 130781
T: Merry Harriers #2
S: "Music of Ireland - The Big Session" (DJ Taylor)
Z: B.Black
L: 1/8
M: 4/4
R: reel
K: Amix
ea a2 eg g2|ea a2 ABcd|ea a2 efge|afge d2 cd :|
eA A2 efgf|eA A2 BG G2|A2 cd efge|afge d2 cd :|
